X: 723
T: Shou fu zuoquan cheng
%%abc-version 2.0
%%abcx-abcm2ps-target-version 5.9.1 (29 Sep 2008)
%%abc-creator hum2abc beta
%%abcx-conversion-date 2013/10/02 07:52:30
%%abc-edited-by Helmut Schaffrath
%%humdrum-veritas 834102698
%%humdrum-veritas-data 459865629
%%continueall 1
%%barnumbers 0
L: 1/8
M: 2/4
K: G
A A A d [I:setbarnb 1]| 
c B A B | 
E F A B/ A/ | 
G F/ E/D2 | 
A d c B | 
A2D E | 
G2F E | 
D D E B, | 
D4 |]  



